www/source/images/icons/icon-node.svg

<svg width="2270" height="2500" viewBox="0 0 256 282" xmlns="http://www.w3.org/2000/svg" preserveAspectRatio="xMinYMin meet"><g fill="#8CC84B"><path d="M116.504 3.58c6.962-3.985 16.03-4.003 22.986 0 34.995 19.774 70.001 39.517 104.99 59.303 6.581 3.707 10.983 11.031 10.916 18.614v118.968c.049 7.897-4.788 15.396-11.731 19.019-34.88 19.665-69.742 39.354-104.616 59.019-7.106 4.063-16.356 3.75-23.24-.646-10.457-6.062-20.932-12.094-31.39-18.15-2.137-1.274-4.546-2.288-6.055-4.36 1.334-1.798 3.719-2.022 5.657-2.807 4.365-1.388 8.374-3.616 12.384-5.778 1.014-.694 2.252-.428 3.224.193 8.942 5.127 17.805 10.403 26.777 15.481 1.914 1.105 3.852-.362 5.488-1.274 34.228-19.345 68.498-38.617 102.72-57.968 1.268-.61 1.969-1.956 1.866-3.345.024-39.245.006-78.497.012-117.742.145-1.576-.767-3.025-2.192-3.67-34.759-19.575-69.5-39.18-104.253-58.76a3.621 3.621 0 0 0-4.094-.006C91.2 39.257 56.465 58.88 21.712 78.454c-1.42.646-2.373 2.071-2.204 3.653.006 39.245 0 78.497 0 117.748a3.329 3.329 0 0 0 1.89 3.303c9.274 5.259 18.56 10.481 27.84 15.722 5.228 2.814 11.647 4.486 17.407 2.33 5.083-1.823 8.646-7.01 8.549-12.407.048-39.016-.024-78.038.036-117.048-.127-1.732 1.516-3.163 3.2-3 4.456-.03 8.918-.06 13.374.012 1.86-.042 3.14 1.823 2.91 3.568-.018 39.263.048 78.527-.03 117.79.012 10.464-4.287 21.85-13.966 26.97-11.924 6.177-26.662 4.867-38.442-1.056-10.198-5.09-19.93-11.097-29.947-16.55C5.368 215.886.555 208.357.604 200.466V81.497c-.073-7.74 4.504-15.197 11.29-18.85C46.768 42.966 81.636 23.27 116.504 3.58z"/><path d="M146.928 85.99c15.21-.979 31.493-.58 45.18 6.913 10.597 5.742 16.472 17.793 16.659 29.566-.296 1.588-1.956 2.464-3.472 2.355-4.413-.006-8.827.06-13.24-.03-1.872.072-2.96-1.654-3.195-3.309-1.268-5.633-4.34-11.212-9.642-13.929-8.139-4.075-17.576-3.87-26.451-3.785-6.479.344-13.446.905-18.935 4.715-4.214 2.886-5.494 8.712-3.99 13.404 1.418 3.369 5.307 4.456 8.489 5.458 18.33 4.794 37.754 4.317 55.734 10.626 7.444 2.572 14.726 7.572 17.274 15.366 3.333 10.446 1.872 22.932-5.56 31.318-6.027 6.901-14.805 10.657-23.56 12.697-11.647 2.597-23.734 2.663-35.562 1.51-11.122-1.268-22.696-4.19-31.282-11.768-7.342-6.375-10.928-16.308-10.572-25.895.085-1.619 1.697-2.748 3.248-2.615 4.444-.036 8.888-.048 13.332.006 1.775-.127 3.091 1.407 3.182 3.08.82 5.367 2.837 11 7.517 14.182 9.032 5.827 20.365 5.428 30.707 5.591 8.568-.38 18.186-.495 25.178-6.158 3.689-3.23 4.782-8.634 3.785-13.283-1.08-3.925-5.186-5.754-8.712-6.95-18.095-5.724-37.736-3.647-55.656-10.12-7.275-2.571-14.31-7.432-17.105-14.906-3.9-10.578-2.113-23.662 6.098-31.765 8.006-8.06 19.563-11.164 30.551-12.275z"/></g></svg>

<svg xmlns="http://www.w3.org/2000/svg" width="256" height="282" viewBox="0 0 256 282">
  <g fill="#8CC84B">
    <path d="M116.504,3.58 C123.466,-0.405 132.534,-0.423 139.49,3.58 C174.485,23.354 209.491,43.097 244.48,62.883 C251.061,66.59 255.463,73.914 255.396,81.497 L255.396,200.465 C255.445,208.362 250.608,215.861 243.665,219.484 C208.785,239.149 173.923,258.838 139.049,278.503 C131.943,282.566 122.693,282.253 115.809,277.857 C105.352,271.795 94.877,265.763 84.419,259.707 C82.282,258.433 79.873,257.419 78.364,255.347 C79.698,253.549 82.083,253.325 84.021,252.54 C88.386,251.152 92.395,248.924 96.405,246.762 C97.419,246.068 98.657,246.334 99.629,246.955 C108.571,252.082 117.434,257.358 126.406,262.436 C128.32,263.541 130.258,262.074 131.894,261.162 C166.122,241.817 200.392,222.545 234.614,203.194 C235.882,202.584 236.583,201.238 236.48,199.849 C236.504,160.604 236.486,121.352 236.492,82.107 C236.637,80.531 235.725,79.082 234.3,78.437 C199.541,58.862 164.8,39.257 130.047,19.677 C128.814533,18.829693 127.187946,18.8273091 125.953,19.671 C91.2,39.257 56.465,58.88 21.712,78.454 C20.292,79.1 19.339,80.525 19.508,82.107 C19.514,121.352 19.508,160.604 19.508,199.855 C19.3845767,201.243059 20.1387711,202.561104 21.398,203.158 C30.672,208.417 39.958,213.639 49.238,218.88 C54.466,221.694 60.885,223.366 66.645,221.21 C71.728,219.387 75.291,214.2 75.194,208.803 C75.242,169.787 75.17,130.765 75.23,91.755 C75.103,90.023 76.746,88.592 78.43,88.755 C82.886,88.725 87.348,88.695 91.804,88.767 C93.664,88.725 94.944,90.59 94.714,92.335 C94.696,131.598 94.762,170.862 94.684,210.125 C94.696,220.589 90.397,231.975 80.718,237.095 C68.794,243.272 54.056,241.962 42.276,236.039 C32.078,230.949 22.346,224.942 12.329,219.489 C5.368,215.886 0.555,208.357 0.604,200.466 L0.604,81.497 C0.531,73.757 5.108,66.3 11.894,62.647 C46.768,42.966 81.636,23.27 116.504,3.58 Z"/>
    <path d="M146.928,85.99 C162.138,85.011 178.421,85.41 192.108,92.903 C202.705,98.645 208.58,110.696 208.767,122.469 C208.471,124.057 206.811,124.933 205.295,124.824 C200.882,124.818 196.468,124.884 192.055,124.794 C190.183,124.866 189.095,123.14 188.86,121.485 C187.592,115.852 184.52,110.273 179.218,107.556 C171.079,103.481 161.642,103.686 152.767,103.771 C146.288,104.115 139.321,104.676 133.832,108.486 C129.618,111.372 128.338,117.198 129.842,121.89 C131.26,125.259 135.149,126.346 138.331,127.348 C156.661,132.142 176.085,131.665 194.065,137.974 C201.509,140.546 208.791,145.546 211.339,153.34 C214.672,163.786 213.211,176.272 205.779,184.658 C199.752,191.559 190.974,195.315 182.219,197.355 C170.572,199.952 158.485,200.018 146.657,198.865 C135.535,197.597 123.961,194.675 115.375,187.097 C108.033,180.722 104.447,170.789 104.803,161.202 C104.888,159.583 106.5,158.454 108.051,158.587 C112.495,158.551 116.939,158.539 121.383,158.593 C123.158,158.466 124.474,160 124.565,161.673 C125.385,167.04 127.402,172.673 132.082,175.855 C141.114,181.682 152.447,181.283 162.789,181.446 C171.357,181.066 180.975,180.951 187.967,175.288 C191.656,172.058 192.749,166.654 191.752,162.005 C190.672,158.08 186.566,156.251 183.04,155.055 C164.945,149.331 145.304,151.408 127.384,144.935 C120.109,142.364 113.074,137.503 110.279,130.029 C106.379,119.451 108.166,106.367 116.377,98.264 C124.383,90.204 135.94,87.1 146.928,85.989 L146.928,85.99 Z"/>
  </g>
</svg>
